X: 5
T: Quam pulchra es Cycle / Ave regina caelorum mater
N: Derived from Gas2017e-Quam_pulchra_es_Cycle-Ave_regina_caelorum_mater.krn
C: Gaspar van Weerbeke
%%abc-version 2.0
%%abcx-abcm2ps-target-version 5.9.1 (29 Sep 2008)
%%abc-creator hum2abc beta
%%abcx-conversion-date 2019/02/16 20:36:45
%%abc-edited-by Jesse Rodin
%%abc-edited-by Clare Bokulich
%%abcx-initial-encoding-date 2016/03/29/
%%humdrum-veritas 309273000
%%humdrum-veritas-data 3571873211
%%linebreak <none>
%%barnumbers 0
L: 1/4
M: 4/2
Q: 1/2=120
%%staves [1 2 3 4]
V: 1 clef=treble
V: 2 clef=treble-8
V: 3 clef=treble-8
V: 4 clef=bass
K: F
[V:1] z8 | 
[V:2] z8 | 
[V:3] z8 | 
[V:4] D,8 | 
[V:1] z8 | 
[V:2] z8 | 
[V:3] z8 | 
[V:4] E,4F,4 | 
[V:1] z8 | 
[V:2] d8 | 
[V:3] z8 | 
[V:4] G,3A,B,2G,2 | 
[V:1] z8 | 
[V:2] e4f4 | 
[V:3] z8 | 
[V:4] C3B,A,4 | 
[V:1] z8 | 
[V:2] g3fd4 | 
[V:3] G8 | 
[V:4] G,2B,3G,B,2 | 
[V:1] z8 | 
[V:2] c4z2d2 | 
[V:3] A4B4 | 
[V:4] C2A,2G,4 | 
[V:1] G8 | 
[V:2] e3dc4- | 
[V:3] c3de2c2 | 
[V:4] z4A,4 | 
[V:1] A4B4 | 
[V:2] c4g4 | 
[V:3] f3ed4 | 
[V:4] F,4G,4 | 
[V:1] c4e4 | 
[V:2] e2a6 | 
[V:3] c4c4 | 
[V:4] A,4A,2A,2 | 
[V:1] d2d4^c2 | 
[V:2] f2d2a4 | 
[V:3] d2f2e4 | 
[V:4] B,2C2A,4 | 
[V:1] d6cB | 
[V:2] f8 | 
[V:3] d8 | 
[V:4] D,8 | 
[V:1] A4B2A2- | 
[V:2] f4e2f2- | 
[V:3] c4B2c2 | 
[V:4] F,4G,2F,2 | 
[V:1] A2G4^F2 | 
[V:2] f2d6 | 
[V:3] d2B2A4 | 
[V:4] D,2G,2D,4 | 
[V:1] G4G4 | 
[V:2] d4z2g2- | 
[V:3] G8 | 
[V:4] z2D4CB, | 
[V:1] A4B4 | 
[V:2] g2f2g2b2 | 
[V:3] z4G4 | 
[V:4] A,4G,4 | 
[V:1] c4z2d2 | 
[V:2] a4g4 | 
[V:3] A4B4 | 
[V:4] F,4G,2B,2 | 
[V:1] c2e2d2f2 | 
[V:2] a4f4 | 
[V:3] c4z2d2 | 
[V:4] A,4D,4 | 
[V:1] e2d4e2- | 
[V:2] g2a3bc'2- | 
[V:3] c2f4g2- | 
[V:4] z2D4C2- | 
[V:1] edc4=B2 | 
[V:2] c'2g6 | 
[V:3] g2e2d4 | 
[V:4] C4G,4 | 
[V:1] c4f4 | 
[V:2] e2f2d2B2 | 
[V:3] c4z4 | 
[V:4] A,2F,3E,D,2 | 
[V:1] e4d2d2- | 
[V:2] c4A2a2- | 
[V:3] z4f4 | 
[V:4] C,4D,4 | 
[V:1] d2^c2d4 | 
[V:2] a4f3d | 
[V:3] e4d2d2- | 
[V:4] A,4D,4 | 
[V:1] B2A2B4 | 
[V:2] g2f2g3f | 
[V:3] d2c2d3c | 
[V:4] G,2A,2G,4 | 
[V:1] F2G4^F2 | 
[V:2] d2c2d4 | 
[V:3] A2G2A4 | 
[V:4] F,2E,2D,4 | 
[V:1] G8 | 
[V:2] z2d2e2e2 | 
[V:3] G8 | 
[V:4] z2G,2E,2E,2 | 
[V:1] d4d2c2 | 
[V:2] f4g2c2 | 
[V:3] z8 | 
[V:4] D,4G,2G,2 | 
[V:1] B4A4 | 
[V:2] g4f4 | 
[V:3] d4d2c2 | 
[V:4] G,4D,2F,2 | 
[V:1] z8 | 
[V:2] d8 | 
[V:3] B4A4 | 
[V:4] G,4D,4 | 
[V:1] B4B2A2 | 
[V:2] B3cd4 | 
[V:3] z8 | 
[V:4] G,6D,2 | 
[V:1] G4F4 | 
[V:2] z6d2- | 
[V:3] B4B2A2 | 
[V:4] _E,4D,2F,2 | 
[V:1] z8 | 
[V:2] d2c2d4 | 
[V:3] G4F4 | 
[V:4] _E,4D,4 | 
[V:1] G4G2F2 | 
[V:2] _e3dc2d2 | 
[V:3] z8 | 
[V:4] z8 | 
[V:1] _E4D2D2- | 
[V:2] B6A2- | 
[V:3] z8 | 
[V:4] G,4G,2F,2 | 
[V:1] D2C2D4 | 
[V:2] A2G2A2B2- | 
[V:3] z8 | 
[V:4] _E,4D,2G,2- | 
[V:1] z8 | 
[V:2] BAd4c2 | 
[V:3] z8 | 
[V:4] G,2F,2_E,4 | 
[V:1] z8 | 
[V:2] d6e2 | 
[V:3] z8 | 
[V:4] D,3=E,F,2G,2 | 
[V:1] z8 | 
[V:2] f4g2a2- | 
[V:3] z8 | 
[V:4] A,2B,4C2 | 
[V:1] z8 | 
[V:2] a2g4^f2 | 
[V:3] z4c4 | 
[V:4] D2B,2A,4 | 
[V:1] z8 | 
[V:2] g8 | 
[V:3] B2d4cB | 
[V:4] G,8 | 
[V:1] c4B2d2- | 
[V:2] z8 | 
[V:3] A4G4 | 
[V:4] z8 | 
[V:1] d2cBA4 | 
[V:2] z8 | 
[V:3] z2d3ef2 | 
[V:4] z8 | 
[V:1] G4d3e | 
[V:2] z8 | 
[V:3] g2e2f2d2- | 
[V:4] z8 | 
[V:1] f2g2e2f2 | 
[V:2] z8 | 
[V:3] d2e2c2d2- | 
[V:4] z8 | 
[V:1] d4e2c2 | 
[V:2] z8 | 
[V:3] d2cBA4 | 
[V:4] z8 | 
[V:1] d3cB2A2- | 
[V:2] z8 | 
[V:3] B3cdef2- | 
[V:4] z8 | 
[V:1] A2d4^c2 | 
[V:2] z8 | 
[V:3] f2d2e4 | 
[V:4] z8 | 
[V:1] d4z4 | 
[V:2] f4g2b2- | 
[V:3] d4z4 | 
[V:4] z8 | 
[V:1] z8 | 
[V:2] b2aga4 | 
[V:3] z8 | 
[V:4] z4F,4 | 
[V:1] z8 | 
[V:2] b2f4ed | 
[V:3] z8 | 
[V:4] G,2B,4A,G, | 
[V:1] z8 | 
[V:2] c4B3c | 
[V:3] z8 | 
[V:4] A,4B,4 | 
[V:1] z8 | 
[V:2] def4g2- | 
[V:3] z8 | 
[V:4] B,3CD2C2- | 
[V:1] z8 | 
[V:2] g2f4e2 | 
[V:3] z8 | 
[V:4] C2A,2G,4 | 
[V:1] A4B2d2- | 
[V:2] f4z4 | 
[V:3] z8 | 
[V:4] F,4G,4 | 
[V:1] d2cBc4 | 
[V:2] z8 | 
[V:3] z4A4 | 
[V:4] D,4z4 | 
[V:1] d2f4ed | 
[V:2] z8 | 
[V:3] B2d4cB | 
[V:4] z8 | 
[V:1] e4d4- | 
[V:2] z8 | 
[V:3] c4d2f2- | 
[V:4] z8 | 
[V:1] d2cBcBAG | 
[V:2] z8 | 
[V:3] f2ede4 | 
[V:4] z4C,4 | 
[V:1] F3GA2B2 | 
[V:2] d3cA2G2 | 
[V:3] d8 | 
[V:4] D,3E,F,2G,2 | 
[V:1] A2c2B2A2- | 
[V:2] a4g2f2- | 
[V:3] c4d2c2 | 
[V:4] A,4B,2F,2- | 
[V:1] A2G4^F2 | 
[V:2] f2d6 | 
[V:3] d2B2A4 | 
[V:4] F,2G,2D,4 | 
[V:1] G8 ||  
[V:2] d8 ||  
[V:3] G8 ||  
[V:4] G,8 ||  
[V:1]  [K:F] [K:clef=treble][M:4/2]!fermata!A8 | 
[V:2]  [K:F] [K:clef=treble-8][M:4/2]!fermata!f8 | 
[V:3]  [K:F] [K:clef=treble-8][M:4/2]!fermata!d8 | 
[V:4]  [K:F] [K:clef=bass][M:4/2]!fermata!D,8 | 
[V:1] !fermata!A8 | 
[V:2] !fermata!f8 | 
[V:3] !fermata!c8 | 
[V:4] !fermata!F,8 | 
[V:1] !fermata!G8 | 
[V:2] !fermata!d8 | 
[V:3] !fermata!B8 | 
[V:4] !fermata!G,8 | 
[V:1] !fermata!F8 | 
[V:2] !fermata!d8 | 
[V:3] !fermata!A8 | 
[V:4] !fermata!D,8 | 
[V:1] !fermata!B8- | 
[V:2] !fermata!d8- | 
[V:3] !fermata!B8- | 
[V:4] !fermata!G,8- | 
[V:1] B4B4 | 
[V:2] d4e4 | 
[V:3] B4B4 | 
[V:4] G,4G,4 | 
[V:1] !fermata!A8 ||  
[V:2] !fermata!f8 ||  
[V:3] !fermata!c8 ||  
[V:4] !fermata!F,8 ||  
[V:1]  [K:F] [K:clef=treble][M:4/2]A4A4 | 
[V:2]  [K:F] [K:clef=treble-8][M:4/2]f4f4 | 
[V:3]  [K:F] [K:clef=treble-8][M:4/2]d4d4 | 
[V:4]  [K:F] [K:clef=bass][M:4/2]D,4D,4 | 
[V:1] B4A2B2- | 
[V:2] g4f2g2 | 
[V:3] d4c2d2- | 
[V:4] G,4A,2G,2- | 
[V:1] B2G4^F2 | 
[V:2] d2e2d4 | 
[V:3] d2B2A4 | 
[V:4] G,4D,4 | 
[V:1] G8 | 
[V:2] B8 | 
[V:3] G8 | 
[V:4] _E,4E,4 | 
[V:1] A4A4 | 
[V:2] d4d4 | 
[V:3] F4F4 | 
[V:4] D,4F,4 | 
[V:1] G4F4 | 
[V:2] c4d4 | 
[V:3] G4A4 | 
[V:4] _E,4D,4 | 
[V:1] G4E4 | 
[V:2] B2G4E2 | 
[V:3] G4A4 | 
[V:4] _E,4C,4 | 
[V:1] D8 | 
[V:2] F8 | 
[V:3] B8 | 
[V:4] B,,8 | 
[V:1] G4G4 | 
[V:2] G4G4 | 
[V:3] c4c4 | 
[V:4] _E,4E,4 | 
[V:1] F4A2G2- | 
[V:2] A4A2B2- | 
[V:3] d4f2_e2- | 
[V:4] D,4D,2G,2- | 
[V:1] G2F2G4 | 
[V:2] B2A4G2 | 
[V:3] e2d4c2 | 
[V:4] G,2D,2_E,4 | 
[V:1] F8 | 
[V:2] A4a4 | 
[V:3] d8 | 
[V:4] D,8 | 
[V:1] B4A4 | 
[V:2] g4f4 | 
[V:3] d4c4 | 
[V:4] G,4A,4 | 
[V:1] B4A2c2- | 
[V:2] g4c4 | 
[V:3] d4f4 | 
[V:4] G,4F,4 | 
[V:1] c2B4A2 | 
[V:2] d2e2f4 | 
[V:3] d2B2c4 | 
[V:4] B,2G,2F,4 | 
[V:1] B4z4 | 
[V:2] d8 | 
[V:3] B8 | 
[V:4] G,8 | 
[V:1] A4B2A2- | 
[V:2] f4e2f2- | 
[V:3] d4B2c2- | 
[V:4] D,4G,2F,2- | 
[V:1] A2G4^F2 | 
[V:2] f2d2d4 | 
[V:3] c2B2A4 | 
[V:4] F,2G,2D,4 | 
[V:1] G4z4 | 
[V:2] d4z4 | 
[V:3] G4z4 | 
[V:4] G,4z4 | 
[V:1] G8- | 
[V:2] d8 | 
[V:3] B8- | 
[V:4] G,8- | 
[V:1] G4F4 | 
[V:2] _e4d4 | 
[V:3] B4A4 | 
[V:4] G,4D,4 | 
[V:1] F8 |]  
[V:2] d8 |]  
[V:3] A8 |]  
[V:4] D,8 |]  



